assets/img/icons/payment-methods/discover.svg

<svg width="750" height="471" viewBox="0 0 750 471" version="1.1" xmlns="http://www.w3.org/2000/svg" xmlns:xlink="http://www.w3.org/1999/xlink">
    <!-- Generator: Sketch 48.2 (47327) - http://www.bohemiancoding.com/sketch -->
    <desc>Created with Sketch.</desc>
    <defs></defs>
    <g id="Page-1" stroke="none" stroke-width="1" fill="none" fill-rule="evenodd">
        <g id="discover" fill-rule="nonzero">
            <path d="M52.8771038,0 C23.6793894,0 -4.55476115e-15,23.1545612 0,51.7102589 L0,419.289737 C0,447.850829 23.671801,471 52.8771038,471 L697.122894,471 C726.320615,471 750,447.845433 750,419.289737 L750,252.475404 L750,51.7102589 C750,23.1491677 726.328202,-4.4533018e-15 697.122894,0 L52.8771038,0 Z" id="Shape" fill="#4D4D4D"></path>
            <path d="M314.569558,152.198414 C323.06625,152.198414 330.192577,153.9309 338.865308,158.110254 L338.865308,180.197198 C330.650269,172.563549 323.523875,169.368926 314.100058,169.368926 C295.577115,169.368926 281.009615,183.944539 281.009615,202.424438 C281.009615,221.911997 295.126279,235.620254 315.018404,235.620254 C323.972798,235.620254 330.967135,232.591128 338.865308,225.080186 L338.865308,247.178497 C329.883538,251.197965 322.604577,252.785079 314.100058,252.785079 C284.025202,252.785079 260.655798,230.849701 260.655798,202.560947 C260.655798,174.577103 284.647269,152.198414 314.569558,152.198414 Z M221.191404,152.807038 C232.293048,152.807038 242.451462,156.418802 250.944635,163.479831 L240.609981,176.340655 C235.465019,170.859895 230.599394,168.547945 224.682615,168.547945 C216.169885,168.547936 209.970327,173.154235 209.970327,179.215049 C209.970327,184.413218 213.450798,187.164422 225.302356,191.332621 C247.768529,199.141028 254.426462,206.064868 254.426462,221.354473 C254.426462,239.986821 240.026981,252.955721 219.503077,252.955721 C204.47426,252.955721 193.548154,247.330452 184.44824,234.636213 L197.205529,222.956624 C201.754702,231.315341 209.342452,235.792799 218.763144,235.792799 C227.573971,235.792799 234.097058,230.014421 234.097058,222.217168 C234.097058,218.175392 232.121269,214.709536 228.175702,212.259183 C226.189231,211.099073 222.254519,209.369382 214.522615,206.777734 C195.973058,200.43062 189.609,193.646221 189.609,180.386799 C189.609,164.636126 203.275981,152.807038 221.191404,152.807038 Z M446.886269,154.485036 L468.460788,154.485036 L495.464615,219.130417 L522.815885,154.485036 L544.22701,154.485036 L500.482644,253.198414 L489.855019,253.198414 L446.886269,154.485036 Z M64.8212135,154.632923 L93.811974,154.632923 C125.842394,154.632923 148.170827,174.418596 148.170827,202.822609 C148.170827,216.985567 141.340038,230.679389 129.788913,239.766893 C120.068962,247.437722 108.994192,250.877669 93.6598558,250.877669 L64.8212135,250.877669 L64.8212135,154.632923 Z M157.25849,154.632923 L177.009462,154.632923 L177.009462,250.877669 L157.25849,250.877669 L157.25849,154.632923 Z M553.156923,154.632923 L609.168423,154.632923 L609.168423,170.940741 L572.892875,170.940741 L572.892875,192.303392 L607.831279,192.303392 L607.831279,208.603619 L572.892875,208.603619 L572.892875,234.583122 L609.168423,234.583122 L609.168423,250.877669 L553.156923,250.877669 L553.156923,154.632923 Z M622.250596,154.632923 L651.534327,154.632923 C674.313452,154.632923 687.366663,165.030007 687.366663,183.048838 C687.366663,197.784414 679.179923,207.454847 664.302885,210.332805 L696.176385,250.877669 L671.888144,250.877669 L644.551904,212.213673 L641.977163,212.213673 L641.977163,250.877669 L622.250596,250.877669 L622.250596,154.632923 Z M641.977163,169.791736 L641.977163,198.939525 L647.748269,198.939525 C660.360308,198.939525 667.044769,193.734406 667.044769,184.05942 C667.044769,174.693052 660.359106,169.791736 648.060019,169.791736 L641.977163,169.791736 Z M84.5571663,170.940741 L84.5571663,234.583122 L89.8568962,234.583122 C102.619538,234.583122 110.679663,232.259105 116.885144,226.934514 C123.71575,221.152572 127.824519,211.920423 127.824519,202.684197 C127.824519,193.462833 123.71575,184.505917 116.885144,178.723975 C110.361615,173.113074 102.619538,170.940741 89.8568962,170.940741 L84.5571663,170.940741 Z" id="Shape" fill="#FFFFFF"></path>
            <path d="M399.164288,151.559424 C428.914452,151.559424 453.031096,173.727429 453.031096,201.112187 L453.031096,201.143399 C453.031096,228.528147 428.914452,250.727374 399.164288,250.727374 C369.414125,250.727374 345.297481,228.528147 345.297481,201.143399 L345.297481,201.112187 C345.297481,173.727429 369.414125,151.559424 399.164288,151.559424 Z M749.982612,271.093939 C724.934651,288.327133 537.408564,411.490963 212.719237,470.985071 L697.105507,470.985071 C726.303228,470.985071 749.982612,447.830504 749.982612,419.274807 L749.982612,271.093939 Z" id="Shape" fill="#F47216"></path>
        </g>
    </g>
</svg>

<svg width="750" height="471" xmlns="http://www.w3.org/2000/svg"><g fill="none"><path d="M52.877 0C23.68 0 0 23.155 0 51.71v367.58C0 447.85 23.672 471 52.877 471h644.246C726.32 471 750 447.845 750 419.29V51.71C750 23.15 726.328 0 697.123 0H52.877z" fill="#4D4D4D"/><path d="M314.57 152.198c8.496 0 15.623 1.733 24.295 5.912v22.087c-8.215-7.633-15.341-10.828-24.765-10.828-18.523 0-33.09 14.576-33.09 33.055 0 19.488 14.116 33.196 34.008 33.196 8.955 0 15.95-3.029 23.847-10.54v22.098c-8.981 4.02-16.26 5.607-24.765 5.607-30.075 0-53.444-21.935-53.444-50.224 0-27.984 23.991-50.363 53.914-50.363zm-93.379.609c11.102 0 21.26 3.612 29.754 10.673l-10.335 12.86c-5.145-5.48-10.01-7.792-15.927-7.792-8.513 0-14.713 4.606-14.713 10.667 0 5.198 3.48 7.95 15.332 12.118 22.467 7.808 29.124 14.732 29.124 30.021 0 18.633-14.399 31.602-34.923 31.602-15.029 0-25.955-5.626-35.055-18.32l12.758-11.68c4.549 8.36 12.136 12.837 21.557 12.837 8.811 0 15.334-5.779 15.334-13.576 0-4.042-1.976-7.507-5.921-9.958-1.987-1.16-5.921-2.89-13.653-5.481-18.55-6.347-24.914-13.132-24.914-26.391 0-15.75 13.667-27.58 31.582-27.58zm225.695 1.678h21.575l27.004 64.645 27.35-64.645h21.412l-43.744 98.713h-10.628l-42.969-98.713zm-382.065.148h28.991c32.03 0 54.359 19.786 54.359 48.19 0 14.163-6.831 27.856-18.382 36.944-9.72 7.67-20.795 11.11-36.13 11.11H64.822v-96.244zm92.437 0h19.751v96.245h-19.75v-96.245zm395.899 0h56.011v16.308h-36.275v21.362h34.938v16.3h-34.938v25.98h36.275v16.295h-56.011v-96.245zm69.094 0h29.283c22.78 0 35.833 10.397 35.833 28.416 0 14.735-8.187 24.406-23.064 27.284l31.873 40.545h-24.288l-27.336-38.664h-2.575v38.664h-19.726v-96.245zm19.726 15.159v29.148h5.771c12.612 0 19.297-5.206 19.297-14.88 0-9.367-6.686-14.268-18.985-14.268h-6.083zm-557.42 1.149v63.642h5.3c12.763 0 20.823-2.324 27.028-7.648 6.83-5.782 10.94-15.015 10.94-24.25 0-9.222-4.11-18.18-10.94-23.961-6.523-5.61-14.265-7.783-27.028-7.783h-5.3z" fill="#FFF"/><path d="M399.164 151.56c29.75 0 53.867 22.167 53.867 49.552v.031c0 27.385-24.117 49.584-53.867 49.584-29.75 0-53.867-22.199-53.867-49.584v-.03c0-27.386 24.117-49.554 53.867-49.554zm350.819 119.534c-25.048 17.233-212.574 140.397-537.264 199.891h484.387c29.197 0 52.877-23.154 52.877-51.71V271.094z" fill="#F47216"/></g></svg>
